; generated by PrusaSlicer 2.3.0+win64 on 2021-04-30 at 08:52:06 UTC

; 

; external perimeters extrusion width = 0.60mm
; perimeters extrusion width = 0.45mm
; infill extrusion width = 0.45mm
; solid infill extrusion width = 0.45mm
; top infill extrusion width = 0.40mm
; first layer extrusion width = 0.42mm

M201 X1000 Y1000 Z200 E5000 ; sets maximum accelerations, mm/sec^2
M203 X200 Y200 Z8 E60 ; sets maximum feedrates, mm/sec
M204 P1250 R1250 T1250 ; sets acceleration (P, T) and retract acceleration (R), mm/sec^2
M205 X8.00 Y8.00 Z0.40 E5.00 ; sets the jerk limits, mm/sec
M205 S0 T0 ; sets the minimum extruding and travel feed rate, mm/sec
M107 ; disable fan
;TYPE:Custom
G90 ; use absolute coordinates
M83 ; extruder relative mode
M204 S1250 T1250
M104 S215 ; set extruder temp
M140 S60 ; set bed temp
G28 ; home all
G1 Y0 Z1 F100 ; move print head up
M190 S60 ; wait for bed temp
M109 S215 ; wait for extruder temp
G92 E0
G1 E38 F1000; deretract filament
G92 E0
G1 X60 Z0 E9 ; intro line
G1 X100 E12.5 ; intro line
G92 E0
G21 ; set units to millimeters
G90 ; use absolute coordinates
M83 ; use relative distances for extrusion
; Filament gcode
;LAYER_CHANGE
;Z:0.2
;HEIGHT:0.2
;BEFORE_LAYER_CHANGE
;0.2
G1 E-6.00000 F2400.000 ; retract
G1 Z0.075 F10800.000 ; lift Z
G1 Z0.200 ; move to next layer (0)
;AFTER_LAYER_CHANGE
;0.2
G1 Z0.275 ; lift Z
G1 X98.853 Y97.795 ; move to first brim point
G1 Z0.200 ; restore layer Z
G1 E6.00000 F3000.000 ; unretract
M204 S1250 ; adjust acceleration
;TYPE:Skirt
;WIDTH:0.42
G1 F1800.000
G1 X100.320 Y96.767 E0.05617 ; brim
G1 X101.929 Y96.042 E0.05533 ; brim
G1 X103.376 Y95.671 E0.04684 ; brim
G1 X104.594 Y95.541 E0.03839 ; brim
G1 X105.829 Y95.570 E0.03875 ; brim
G1 X107.461 Y95.860 E0.05198 ; brim
G1 X109.027 Y96.435 E0.05230 ; brim
G1 X110.466 Y97.275 E0.05224 ; brim
G1 X111.749 Y98.365 E0.05278 ; brim
G1 X112.553 Y99.301 E0.03868 ; brim
G1 X113.240 Y100.348 E0.03929 ; brim
G1 X113.871 Y101.709 E0.04703 ; brim
G1 X114.334 Y103.460 E0.05677 ; brim
G1 X114.459 Y105.268 E0.05684 ; brim
G1 X114.342 Y106.498 E0.03875 ; brim
G1 X114.068 Y107.699 E0.03860 ; brim
G1 X113.523 Y109.111 E0.04746 ; brim
G1 X112.551 Y110.701 E0.05844 ; brim
G1 X111.315 Y112.048 E0.05732 ; brim
G1 X110.110 Y112.965 E0.04747 ; brim
G1 X109.034 Y113.562 E0.03860 ; brim
G1 X107.885 Y114.017 E0.03874 ; brim
G1 X106.152 Y114.396 E0.05563 ; brim
G1 X104.344 Y114.447 E0.05671 ; brim
G1 X103.120 Y114.280 E0.03873 ; brim
G1 X101.932 Y113.958 E0.03860 ; brim
G1 X100.545 Y113.358 E0.04738 ; brim
G1 X99.063 Y112.379 E0.05570 ; brim
G1 X97.809 Y111.165 E0.05471 ; brim
G1 X96.856 Y109.839 E0.05119 ; brim
G1 X96.261 Y108.657 E0.04151 ; brim
G1 X95.836 Y107.402 E0.04153 ; brim
G1 X95.565 Y105.837 E0.04982 ; brim
G1 X95.555 Y104.268 E0.04919 ; brim
G1 X95.831 Y102.620 E0.05239 ; brim
G1 X96.394 Y101.038 E0.05264 ; brim
G1 X96.982 Y99.956 E0.03862 ; brim
G1 X97.707 Y98.955 E0.03876 ; brim
G1 X98.811 Y97.837 E0.04924 ; brim
G1 X99.078 Y98.102 F10800.000 ; move to first brim point
G1 F1800.000
G1 X100.492 Y97.103 E0.05427 ; brim
G1 X102.039 Y96.403 E0.05325 ; brim
G1 X103.430 Y96.044 E0.04504 ; brim
G1 X104.621 Y95.917 E0.03756 ; brim
G1 X105.805 Y95.946 E0.03714 ; brim
G1 X107.378 Y96.228 E0.05010 ; brim
G1 X108.881 Y96.783 E0.05022 ; brim
G1 X110.261 Y97.592 E0.05017 ; brim
G1 X111.473 Y98.622 E0.04986 ; brim
G1 X112.259 Y99.537 E0.03783 ; brim
G1 X112.917 Y100.543 E0.03769 ; brim
G1 X113.522 Y101.852 E0.04521 ; brim
G1 X113.965 Y103.538 E0.05466 ; brim
G1 X114.082 Y105.248 E0.05375 ; brim
G1 X113.971 Y106.427 E0.03711 ; brim
G1 X113.703 Y107.601 E0.03778 ; brim
G1 X113.177 Y108.959 E0.04565 ; brim
G1 X112.260 Y110.460 E0.05516 ; brim
G1 X111.073 Y111.759 E0.05517 ; brim
G1 X109.915 Y112.642 E0.04565 ; brim
G1 X108.862 Y113.226 E0.03778 ; brim
G1 X107.761 Y113.660 E0.03710 ; brim
G1 X106.089 Y114.024 E0.05365 ; brim
G1 X104.379 Y114.071 E0.05364 ; brim
G1 X103.206 Y113.913 E0.03709 ; brim
G1 X102.044 Y113.598 E0.03778 ; brim
G1 X100.710 Y113.018 E0.04558 ; brim
G1 X99.312 Y112.095 E0.05254 ; brim
G1 X98.105 Y110.931 E0.05258 ; brim
G1 X97.186 Y109.656 E0.04926 ; brim
G1 X96.604 Y108.499 E0.04062 ; brim
G1 X96.198 Y107.296 E0.03982 ; brim
G1 X95.942 Y105.818 E0.04702 ; brim
G1 X95.929 Y104.313 E0.04719 ; brim
G1 X96.192 Y102.730 E0.05032 ; brim
G1 X96.732 Y101.205 E0.05072 ; brim
G1 X97.307 Y100.147 E0.03776 ; brim
G1 X98.004 Y99.189 E0.03715 ; brim
G1 X99.036 Y98.145 E0.04603 ; brim
G1 X99.304 Y98.410 F10800.000 ; move to first brim point
G1 F1800.000
G1 X99.364 Y98.350 E0.00269 ; brim
G1 X100.693 Y97.422 E0.05081 ; brim
G1 X102.149 Y96.764 E0.05011 ; brim
G1 X103.484 Y96.418 E0.04324 ; brim
G1 X104.625 Y96.295 E0.03596 ; brim
G1 X105.781 Y96.323 E0.03628 ; brim
G1 X107.295 Y96.597 E0.04822 ; brim
G1 X108.705 Y97.117 E0.04714 ; brim
G1 X110.030 Y97.890 E0.04811 ; brim
G1 X111.197 Y98.880 E0.04796 ; brim
G1 X111.950 Y99.754 E0.03619 ; brim
G1 X112.594 Y100.738 E0.03685 ; brim
G1 X113.173 Y101.995 E0.04339 ; brim
G1 X113.590 Y103.582 E0.05146 ; brim
G1 X113.705 Y105.228 E0.05175 ; brim
G1 X113.597 Y106.379 E0.03623 ; brim
G1 X113.339 Y107.503 E0.03617 ; brim
G1 X112.832 Y108.806 E0.04384 ; brim
G1 X111.970 Y110.220 E0.05191 ; brim
G1 X110.830 Y111.470 E0.05303 ; brim
G1 X109.720 Y112.319 E0.04384 ; brim
G1 X108.712 Y112.880 E0.03617 ; brim
G1 X107.637 Y113.304 E0.03623 ; brim
G1 X106.060 Y113.647 E0.05059 ; brim
G1 X104.414 Y113.695 E0.05164 ; brim
G1 X103.269 Y113.541 E0.03621 ; brim
G1 X102.156 Y113.238 E0.03617 ; brim
G1 X100.876 Y112.679 E0.04378 ; brim
G1 X99.535 Y111.791 E0.05046 ; brim
G1 X98.379 Y110.672 E0.05043 ; brim
G1 X97.516 Y109.473 E0.04632 ; brim
G1 X96.957 Y108.366 E0.03890 ; brim
G1 X96.560 Y107.189 E0.03893 ; brim
G1 X96.316 Y105.770 E0.04516 ; brim
G1 X96.307 Y104.327 E0.04523 ; brim
G1 X96.561 Y102.808 E0.04828 ; brim
G1 X97.071 Y101.372 E0.04780 ; brim
G1 X97.620 Y100.358 E0.03614 ; brim
G1 X98.300 Y99.422 E0.03630 ; brim
G1 X99.262 Y98.453 E0.04280 ; brim
G1 X99.529 Y98.719 F10800.000 ; move to first brim point
G1 F1800.000
G1 X99.620 Y98.628 E0.00403 ; brim
G1 X100.865 Y97.758 E0.04762 ; brim
G1 X102.260 Y97.124 E0.04806 ; brim
G1 X103.539 Y96.791 E0.04143 ; brim
G1 X104.652 Y96.671 E0.03512 ; brim
G1 X105.757 Y96.699 E0.03464 ; brim
G1 X107.211 Y96.964 E0.04633 ; brim
G1 X108.559 Y97.465 E0.04508 ; brim
G1 X109.799 Y98.189 E0.04505 ; brim
G1 X110.921 Y99.137 E0.04605 ; brim
G1 X111.657 Y99.991 E0.03532 ; brim
G1 X112.270 Y100.932 E0.03523 ; brim
G1 X112.823 Y102.137 E0.04157 ; brim
G1 X113.221 Y103.660 E0.04937 ; brim
G1 X113.328 Y105.209 E0.04868 ; brim
G1 X113.227 Y106.307 E0.03457 ; brim
G1 X112.974 Y107.405 E0.03534 ; brim
G1 X112.487 Y108.653 E0.04202 ; brim
G1 X111.657 Y110.008 E0.04979 ; brim
G1 X110.587 Y111.181 E0.04979 ; brim
G1 X109.524 Y111.996 E0.04202 ; brim
G1 X108.539 Y112.544 E0.03533 ; brim
G1 X107.513 Y112.947 E0.03457 ; brim
G1 X105.998 Y113.275 E0.04862 ; brim
G1 X104.448 Y113.319 E0.04860 ; brim
G1 X103.356 Y113.174 E0.03455 ; brim
G1 X102.269 Y112.877 E0.03533 ; brim
G1 X101.043 Y112.341 E0.04197 ; brim
G1 X99.784 Y111.507 E0.04733 ; brim
G1 X98.675 Y110.437 E0.04832 ; brim
G1 X97.846 Y109.290 E0.04439 ; brim
G1 X97.299 Y108.208 E0.03800 ; brim
G1 X96.922 Y107.083 E0.03721 ; brim
G1 X96.693 Y105.752 E0.04236 ; brim
G1 X96.684 Y104.341 E0.04423 ; brim
G1 X96.922 Y102.918 E0.04522 ; brim
G1 X97.409 Y101.538 E0.04590 ; brim
G1 X97.945 Y100.549 E0.03527 ; brim
G1 X98.596 Y99.656 E0.03466 ; brim
G1 X99.486 Y98.761 E0.03957 ; brim
G1 X99.752 Y99.025 F10800.000 ; move to first brim point
G1 F1800.000
G1 X99.850 Y98.927 E0.00436 ; brim
G1 X101.038 Y98.094 E0.04548 ; brim
G1 X102.372 Y97.485 E0.04599 ; brim
G1 X103.594 Y97.165 E0.03961 ; brim
G1 X104.656 Y97.048 E0.03348 ; brim
G1 X105.733 Y97.076 E0.03378 ; brim
G1 X107.096 Y97.324 E0.04344 ; brim
G1 X108.384 Y97.799 E0.04304 ; brim
G1 X109.569 Y98.488 E0.04300 ; brim
G1 X110.646 Y99.395 E0.04414 ; brim
G1 X111.348 Y100.207 E0.03365 ; brim
G1 X111.946 Y101.126 E0.03438 ; brim
G1 X112.473 Y102.279 E0.03974 ; brim
G1 X112.846 Y103.704 E0.04621 ; brim
G1 X112.951 Y105.190 E0.04669 ; brim
G1 X112.852 Y106.259 E0.03368 ; brim
G1 X112.610 Y107.307 E0.03370 ; brim
G1 X112.142 Y108.500 E0.04019 ; brim
G1 X111.346 Y109.795 E0.04766 ; brim
G1 X110.344 Y110.892 E0.04658 ; brim
G1 X109.328 Y111.674 E0.04020 ; brim
G1 X108.390 Y112.198 E0.03370 ; brim
G1 X107.390 Y112.591 E0.03368 ; brim
G1 X105.936 Y112.903 E0.04663 ; brim
G1 X104.483 Y112.944 E0.04556 ; brim
G1 X103.419 Y112.802 E0.03367 ; brim
G1 X102.382 Y112.518 E0.03370 ; brim
G1 X101.209 Y112.002 E0.04016 ; brim
G1 X100.007 Y111.203 E0.04527 ; brim
G1 X98.970 Y110.202 E0.04517 ; brim
G1 X98.176 Y109.106 E0.04246 ; brim
G1 X97.642 Y108.050 E0.03709 ; brim
G1 X97.284 Y106.977 E0.03547 ; brim
G1 X97.070 Y105.733 E0.03959 ; brim
G1 X97.058 Y104.386 E0.04224 ; brim
G1 X97.283 Y103.028 E0.04317 ; brim
G1 X97.748 Y101.704 E0.04399 ; brim
G1 X98.257 Y100.761 E0.03360 ; brim
G1 X98.893 Y99.890 E0.03381 ; brim
G1 X99.710 Y99.068 E0.03634 ; brim
G1 X99.976 Y99.334 F10800.000 ; move to first brim point
G1 F1800.000
G1 X100.105 Y99.205 E0.00570 ; brim
G1 X101.239 Y98.413 E0.04338 ; brim
G1 X102.484 Y97.845 E0.04289 ; brim
G1 X103.649 Y97.538 E0.03779 ; brim
G1 X104.684 Y97.424 E0.03263 ; brim
G1 X105.707 Y97.453 E0.03211 ; brim
G1 X107.011 Y97.692 E0.04156 ; brim
G1 X108.237 Y98.147 E0.04099 ; brim
G1 X109.365 Y98.805 E0.04096 ; brim
G1 X110.370 Y99.653 E0.04123 ; brim
G1 X111.054 Y100.444 E0.03278 ; brim
G1 X111.622 Y101.319 E0.03272 ; brim
G1 X112.123 Y102.419 E0.03791 ; brim
G1 X112.477 Y103.782 E0.04414 ; brim
G1 X112.574 Y105.170 E0.04363 ; brim
G1 X112.478 Y106.212 E0.03280 ; brim
G1 X112.246 Y107.207 E0.03205 ; brim
G1 X111.797 Y108.346 E0.03838 ; brim
G1 X111.055 Y109.554 E0.04447 ; brim
G1 X110.101 Y110.604 E0.04448 ; brim
G1 X109.131 Y111.352 E0.03839 ; brim
G1 X108.240 Y111.852 E0.03205 ; brim
G1 X107.266 Y112.234 E0.03279 ; brim
G1 X105.907 Y112.526 E0.04359 ; brim
G1 X104.518 Y112.568 E0.04358 ; brim
G1 X103.481 Y112.430 E0.03278 ; brim
G1 X102.496 Y112.158 E0.03205 ; brim
G1 X101.377 Y111.664 E0.03835 ; brim
G1 X100.231 Y110.899 E0.04320 ; brim
G1 X99.245 Y109.943 E0.04306 ; brim
G1 X98.505 Y108.923 E0.03951 ; brim
G1 X97.985 Y107.893 E0.03618 ; brim
G1 X97.646 Y106.872 E0.03372 ; brim
G1 X97.447 Y105.714 E0.03683 ; brim
G1 X97.436 Y104.399 E0.04123 ; brim
G1 X97.652 Y103.106 E0.04111 ; brim
G1 X98.087 Y101.870 E0.04108 ; brim
G1 X98.583 Y100.952 E0.03273 ; brim
G1 X99.188 Y100.124 E0.03214 ; brim
G1 X99.934 Y99.376 E0.03312 ; brim
G1 X100.359 Y99.483 F10800.000 ; move to first brim point
G1 F1800.000
G1 X101.412 Y98.749 E0.04025 ; brim
G1 X102.596 Y98.205 E0.04086 ; brim
G1 X103.705 Y97.911 E0.03597 ; brim
G1 X104.686 Y97.802 E0.03096 ; brim
G1 X105.683 Y97.829 E0.03124 ; brim
G1 X106.896 Y98.051 E0.03868 ; brim
G1 X108.062 Y98.481 E0.03896 ; brim
G1 X109.135 Y99.105 E0.03892 ; brim
G1 X110.095 Y99.912 E0.03933 ; brim
G1 X110.745 Y100.661 E0.03108 ; brim
G1 X111.298 Y101.512 E0.03185 ; brim
G1 X111.773 Y102.560 E0.03606 ; brim
G1 X112.102 Y103.826 E0.04102 ; brim
G1 X112.197 Y105.152 E0.04166 ; brim
G1 X112.108 Y106.139 E0.03108 ; brim
G1 X111.882 Y107.108 E0.03120 ; brim
G1 X111.453 Y108.192 E0.03654 ; brim
G1 X110.743 Y109.341 E0.04237 ; brim
G1 X109.857 Y110.316 E0.04131 ; brim
G1 X108.935 Y111.030 E0.03656 ; brim
G1 X108.067 Y111.516 E0.03120 ; brim
G1 X107.144 Y111.877 E0.03108 ; brim
G1 X105.845 Y112.154 E0.04162 ; brim
G1 X104.552 Y112.192 E0.04057 ; brim
G1 X103.569 Y112.063 E0.03108 ; brim
G1 X102.610 Y111.798 E0.03120 ; brim
G1 X101.545 Y111.326 E0.03652 ; brim
G1 X100.455 Y110.596 E0.04113 ; brim
G1 X99.519 Y109.685 E0.04095 ; brim
G1 X98.835 Y108.739 E0.03659 ; brim
G1 X98.328 Y107.736 E0.03526 ; brim
G1 X98.009 Y106.767 E0.03196 ; brim
G1 X97.824 Y105.696 E0.03410 ; brim
G1 X97.813 Y104.413 E0.04023 ; brim
G1 X98.013 Y103.215 E0.03806 ; brim
G1 X98.426 Y102.035 E0.03920 ; brim
G1 X98.895 Y101.164 E0.03104 ; brim
G1 X99.484 Y100.359 E0.03127 ; brim
G1 X100.317 Y99.526 E0.03694 ; brim
G1 X100.583 Y99.793 F10800.000 ; move to first brim point
G1 F1800.000
G1 X101.613 Y99.068 E0.03949 ; brim
G1 X102.709 Y98.566 E0.03781 ; brim
G1 X103.761 Y98.284 E0.03414 ; brim
G1 X104.715 Y98.178 E0.03009 ; brim
G1 X105.657 Y98.206 E0.02954 ; brim
G1 X106.811 Y98.419 E0.03682 ; brim
G1 X107.887 Y98.816 E0.03595 ; brim
G1 X108.906 Y99.405 E0.03689 ; brim
G1 X109.820 Y100.170 E0.03740 ; brim
G1 X110.451 Y100.898 E0.03018 ; brim
G1 X110.974 Y101.705 E0.03016 ; brim
G1 X111.422 Y102.700 E0.03422 ; brim
G1 X111.732 Y103.904 E0.03897 ; brim
G1 X111.820 Y105.133 E0.03863 ; brim
G1 X111.733 Y106.092 E0.03019 ; brim
G1 X111.518 Y107.008 E0.02951 ; brim
G1 X111.109 Y108.037 E0.03472 ; brim
G1 X110.452 Y109.101 E0.03922 ; brim
G1 X109.612 Y110.029 E0.03923 ; brim
G1 X108.737 Y110.708 E0.03473 ; brim
G1 X107.917 Y111.170 E0.02951 ; brim
G1 X107.021 Y111.520 E0.03018 ; brim
G1 X105.816 Y111.778 E0.03861 ; brim
G1 X104.586 Y111.816 E0.03861 ; brim
G1 X103.631 Y111.690 E0.03018 ; brim
G1 X102.725 Y111.439 E0.02951 ; brim
G1 X101.713 Y110.988 E0.03471 ; brim
G1 X100.705 Y110.313 E0.03804 ; brim
G1 X99.815 Y109.449 E0.03890 ; brim
G1 X99.165 Y108.556 E0.03465 ; brim
G1 X98.671 Y107.578 E0.03432 ; brim
G1 X98.371 Y106.663 E0.03019 ; brim
G1 X98.201 Y105.677 E0.03138 ; brim
G1 X98.190 Y104.426 E0.03922 ; brim
G1 X98.382 Y103.295 E0.03600 ; brim
G1 X98.765 Y102.201 E0.03633 ; brim
G1 X99.221 Y101.354 E0.03016 ; brim
G1 X99.779 Y100.594 E0.02957 ; brim
G1 X100.541 Y99.835 E0.03370 ; brim
G1 X100.806 Y100.103 F10800.000 ; move to first brim point
G1 F1800.000
G1 X100.867 Y100.042 E0.00271 ; brim
G1 X101.786 Y99.403 E0.03508 ; brim
G1 X102.823 Y98.925 E0.03580 ; brim
G1 X103.818 Y98.657 E0.03231 ; brim
G1 X104.717 Y98.555 E0.02838 ; brim
G1 X105.631 Y98.582 E0.02865 ; brim
G1 X106.726 Y98.787 E0.03493 ; brim
G1 X107.740 Y99.164 E0.03393 ; brim
G1 X108.702 Y99.722 E0.03488 ; brim
G1 X109.546 Y100.429 E0.03451 ; brim
G1 X110.142 Y101.114 E0.02846 ; brim
G1 X110.649 Y101.898 E0.02927 ; brim
G1 X111.072 Y102.840 E0.03237 ; brim
G1 X111.358 Y103.948 E0.03590 ; brim
G1 X111.443 Y105.115 E0.03667 ; brim
G1 X111.363 Y106.019 E0.02844 ; brim
G1 X111.154 Y106.908 E0.02864 ; brim
G1 X110.765 Y107.881 E0.03288 ; brim
G1 X110.160 Y108.862 E0.03611 ; brim
G1 X109.367 Y109.742 E0.03716 ; brim
G1 X108.540 Y110.387 E0.03288 ; brim
G1 X107.744 Y110.835 E0.02864 ; brim
G1 X106.899 Y111.163 E0.02844 ; brim
G1 X105.755 Y111.405 E0.03665 ; brim
G1 X104.619 Y111.440 E0.03563 ; brim
G1 X103.719 Y111.324 E0.02845 ; brim
G1 X102.839 Y111.079 E0.02864 ; brim
G1 X101.883 Y110.651 E0.03287 ; brim
G1 X100.930 Y110.010 E0.03600 ; brim
G1 X100.110 Y109.214 E0.03584 ; brim
G1 X99.494 Y108.372 E0.03271 ; brim
G1 X99.014 Y107.422 E0.03337 ; brim
G1 X98.734 Y106.560 E0.02841 ; brim
G1 X98.578 Y105.658 E0.02870 ; brim
G1 X98.565 Y104.472 E0.03718 ; brim
G1 X98.744 Y103.403 E0.03398 ; brim
G1 X99.105 Y102.366 E0.03444 ; brim
G1 X99.533 Y101.566 E0.02843 ; brim
G1 X100.074 Y100.829 E0.02867 ; brim
G1 X100.763 Y100.145 E0.03045 ; brim
G1 X101.028 Y100.413 F10800.000 ; move to first brim point
G1 F1800.000
G1 X101.120 Y100.322 E0.00406 ; brim
G1 X101.987 Y99.723 E0.03303 ; brim
G1 X102.937 Y99.285 E0.03281 ; brim
G1 X103.875 Y99.030 E0.03046 ; brim
G1 X104.746 Y98.932 E0.02749 ; brim
G1 X105.604 Y98.958 E0.02691 ; brim
G1 X106.640 Y99.154 E0.03305 ; brim
G1 X107.593 Y99.511 E0.03192 ; brim
G1 X108.473 Y100.022 E0.03191 ; brim
G1 X109.272 Y100.689 E0.03261 ; brim
G1 X109.849 Y101.351 E0.02755 ; brim
G1 X110.324 Y102.089 E0.02754 ; brim
G1 X110.721 Y102.978 E0.03051 ; brim
G1 X110.988 Y104.025 E0.03388 ; brim
G1 X111.067 Y105.097 E0.03368 ; brim
G1 X110.989 Y105.971 E0.02753 ; brim
G1 X110.791 Y106.807 E0.02691 ; brim
G1 X110.421 Y107.725 E0.03105 ; brim
G1 X109.849 Y108.648 E0.03406 ; brim
G1 X109.121 Y109.455 E0.03406 ; brim
G1 X108.342 Y110.066 E0.03105 ; brim
G1 X107.595 Y110.488 E0.02691 ; brim
G1 X106.776 Y110.806 E0.02753 ; brim
