; generated by PrusaSlicer 2.3.0+win64 on 2021-04-20 at 08:52:08 UTC

; 

; external perimeters extrusion width = 0.60mm
; perimeters extrusion width = 0.45mm
; infill extrusion width = 0.45mm
; solid infill extrusion width = 0.45mm
; top infill extrusion width = 0.40mm
; first layer extrusion width = 0.42mm

M201 X1000 Y1000 Z200 E5000 ; sets maximum accelerations, mm/sec^2
M203 X200 Y200 Z8 E60 ; sets maximum feedrates, mm/sec
M204 P1250 R1250 T1250 ; sets acceleration (P, T) and retract acceleration (R), mm/sec^2
M205 X8.00 Y8.00 Z0.40 E5.00 ; sets the jerk limits, mm/sec
M205 S0 T0 ; sets the minimum extruding and travel feed rate, mm/sec
M107 ; disable fan
;TYPE:Custom
G90 ; use absolute coordinates
M83 ; extruder relative mode
M204 S1250 T1250
M104 S215 ; set extruder temp
M140 S60 ; set bed temp
G28 ; home all
G1 Y0 Z1 F100 ; move print head up
M190 S60 ; wait for bed temp
M109 S215 ; wait for extruder temp
G92 E0
G1 E38 F1000; deretract filament
G92 E0
G1 X60 Z0 E9 ; intro line
G1 X100 E12.5 ; intro line
G92 E0
G21 ; set units to millimeters
G90 ; use absolute coordinates
M83 ; use relative distances for extrusion
; Filament gcode
;LAYER_CHANGE
;Z:0.2
;HEIGHT:0.2
;BEFORE_LAYER_CHANGE
;0.2
G1 E-6.00000 F2400.000 ; retract
G1 Z0.075 F10800.000 ; lift Z
G1 Z0.200 ; move to next layer (0)
;AFTER_LAYER_CHANGE
;0.2
G1 Z0.275 ; lift Z
G1 X69.714 Y83.304 ; move to first brim point
G1 Z0.200 ; restore layer Z
G1 E6.00000 F3000.000 ; unretract
M204 S1250 ; adjust acceleration
;TYPE:Skirt
;WIDTH:0.42
G1 F1800.000
G1 X71.992 Y82.532 E0.07542 ; brim
G1 X135.923 Y82.536 E2.00451 ; brim
G1 X137.018 Y82.741 E0.03494 ; brim
G1 X138.092 Y83.194 E0.03654 ; brim
G1 X139.490 Y84.347 E0.05681 ; brim
G1 X140.418 Y85.745 E0.05263 ; brim
G1 X140.868 Y87.441 E0.05499 ; brim
G1 X140.868 Y122.555 E1.10099 ; brim
G1 X140.538 Y123.953 E0.04502 ; brim
G1 X140.058 Y124.931 E0.03415 ; brim
G1 X139.050 Y126.086 E0.04809 ; brim
G1 X138.286 Y126.696 E0.03064 ; brim
G1 X136.008 Y127.468 E0.07541 ; brim
G1 X72.045 Y127.468 E2.00553 ; brim
G1 X70.647 Y127.138 E0.04502 ; brim
G1 X69.669 Y126.658 E0.03415 ; brim
G1 X68.514 Y125.650 E0.04809 ; brim
G1 X67.904 Y124.886 E0.03064 ; brim
G1 X67.132 Y122.608 E0.07541 ; brim
G1 X67.132 Y87.445 E1.10252 ; brim
G1 X67.462 Y86.047 E0.04502 ; brim
G1 X67.942 Y85.069 E0.03415 ; brim
G1 X68.950 Y83.914 E0.04809 ; brim
G1 X69.667 Y83.341 E0.02876 ; brim
G1 X69.901 Y83.636 F10800.000 ; move to first brim point
G1 F1800.000
G1 X72.023 Y82.909 E0.07031 ; brim
G1 X135.905 Y82.913 E2.00298 ; brim
G1 X136.927 Y83.108 E0.03263 ; brim
G1 X137.918 Y83.530 E0.03378 ; brim
G1 X139.226 Y84.618 E0.05336 ; brim
G1 X140.086 Y85.926 E0.04907 ; brim
G1 X140.491 Y87.465 E0.04988 ; brim
G1 X140.491 Y122.533 E1.09953 ; brim
G1 X140.176 Y123.843 E0.04227 ; brim
G1 X139.732 Y124.741 E0.03139 ; brim
G1 X138.778 Y125.824 E0.04525 ; brim
G1 X138.078 Y126.381 E0.02806 ; brim
G1 X135.978 Y127.091 E0.06951 ; brim
G1 X72.067 Y127.091 E2.00386 ; brim
G1 X70.757 Y126.776 E0.04227 ; brim
G1 X69.859 Y126.332 E0.03139 ; brim
G1 X68.776 Y125.378 E0.04525 ; brim
G1 X68.219 Y124.678 E0.02806 ; brim
G1 X67.509 Y122.578 E0.06951 ; brim
G1 X67.509 Y87.467 E1.10085 ; brim
G1 X67.824 Y86.157 E0.04227 ; brim
G1 X68.268 Y85.259 E0.03139 ; brim
G1 X69.222 Y84.176 E0.04525 ; brim
G1 X69.854 Y83.673 E0.02533 ; brim
G1 X70.088 Y83.969 F10800.000 ; move to first brim point
G1 F1800.000
G1 X70.130 Y83.935 E0.00170 ; brim
G1 X72.053 Y83.286 E0.06364 ; brim
G1 X135.886 Y83.290 E2.00144 ; brim
G1 X136.835 Y83.474 E0.03029 ; brim
G1 X137.743 Y83.865 E0.03101 ; brim
G1 X138.962 Y84.888 E0.04990 ; brim
G1 X139.753 Y86.106 E0.04551 ; brim
G1 X140.113 Y87.489 E0.04481 ; brim
G1 X140.113 Y122.510 E1.09806 ; brim
G1 X139.815 Y123.733 E0.03947 ; brim
G1 X139.406 Y124.549 E0.02862 ; brim
G1 X138.508 Y125.561 E0.04242 ; brim
G1 X137.870 Y126.065 E0.02550 ; brim
G1 X135.947 Y126.713 E0.06363 ; brim
G1 X72.090 Y126.713 E2.00217 ; brim
G1 X70.867 Y126.415 E0.03947 ; brim
G1 X70.051 Y126.006 E0.02862 ; brim
G1 X69.039 Y125.108 E0.04242 ; brim
G1 X68.535 Y124.470 E0.02550 ; brim
G1 X67.887 Y122.547 E0.06363 ; brim
G1 X67.887 Y87.490 E1.09917 ; brim
G1 X68.185 Y86.267 E0.03947 ; brim
G1 X68.594 Y85.451 E0.02862 ; brim
G1 X69.492 Y84.439 E0.04242 ; brim
G1 X70.041 Y84.006 E0.02191 ; brim
G1 X70.337 Y84.252 F10800.000 ; move to first brim point
G1 F1800.000
G1 X72.084 Y83.664 E0.05779 ; brim
G1 X135.868 Y83.667 E1.99989 ; brim
G1 X136.741 Y83.840 E0.02791 ; brim
G1 X137.566 Y84.199 E0.02823 ; brim
G1 X138.697 Y85.158 E0.04647 ; brim
G1 X139.396 Y86.232 E0.04018 ; brim
G1 X139.736 Y87.513 E0.04157 ; brim
G1 X139.736 Y122.486 E1.09655 ; brim
G1 X139.455 Y123.620 E0.03664 ; brim
G1 X139.082 Y124.356 E0.02585 ; brim
G1 X138.239 Y125.296 E0.03960 ; brim
G1 X137.663 Y125.748 E0.02295 ; brim
G1 X135.916 Y126.336 E0.05778 ; brim
G1 X72.114 Y126.336 E2.00048 ; brim
G1 X70.980 Y126.055 E0.03664 ; brim
G1 X70.244 Y125.682 E0.02585 ; brim
G1 X69.304 Y124.839 E0.03960 ; brim
G1 X68.852 Y124.263 E0.02295 ; brim
G1 X68.264 Y122.516 E0.05778 ; brim
G1 X68.264 Y87.514 E1.09748 ; brim
G1 X68.545 Y86.380 E0.03664 ; brim
G1 X68.918 Y85.644 E0.02585 ; brim
G1 X69.761 Y84.704 E0.03960 ; brim
G1 X70.290 Y84.289 E0.02107 ; brim
G1 X70.522 Y84.586 F10800.000 ; move to first brim point
G1 F1800.000
G1 X72.115 Y84.041 E0.05280 ; brim
G1 X135.848 Y84.044 E1.99833 ; brim
G1 X136.646 Y84.205 E0.02550 ; brim
G1 X137.388 Y84.533 E0.02545 ; brim
G1 X138.430 Y85.426 E0.04302 ; brim
G1 X139.063 Y86.410 E0.03669 ; brim
G1 X139.359 Y87.538 E0.03655 ; brim
G1 X139.359 Y122.462 E1.09504 ; brim
G1 X139.095 Y123.506 E0.03376 ; brim
G1 X138.758 Y124.160 E0.02308 ; brim
G1 X137.971 Y125.030 E0.03679 ; brim
G1 X137.457 Y125.431 E0.02043 ; brim
G1 X135.886 Y125.959 E0.05197 ; brim
G1 X72.138 Y125.959 E1.99877 ; brim
G1 X71.094 Y125.695 E0.03376 ; brim
G1 X70.440 Y125.358 E0.02308 ; brim
G1 X69.570 Y124.571 E0.03679 ; brim
G1 X69.169 Y124.057 E0.02043 ; brim
G1 X68.641 Y122.486 E0.05197 ; brim
G1 X68.641 Y87.538 E1.09577 ; brim
G1 X68.905 Y86.494 E0.03376 ; brim
G1 X69.242 Y85.840 E0.02308 ; brim
G1 X70.029 Y84.970 E0.03679 ; brim
G1 X70.474 Y84.623 E0.01768 ; brim
G1 X70.704 Y84.921 F10800.000 ; move to first brim point
G1 F1800.000
G1 X70.749 Y84.887 E0.00175 ; brim
G1 X72.145 Y84.418 E0.04619 ; brim
G1 X135.829 Y84.421 E1.99675 ; brim
G1 X136.548 Y84.570 E0.02304 ; brim
G1 X137.208 Y84.865 E0.02266 ; brim
G1 X138.162 Y85.692 E0.03960 ; brim
G1 X138.706 Y86.537 E0.03149 ; brim
G1 X138.982 Y87.563 E0.03331 ; brim
G1 X138.982 Y122.438 E1.09348 ; brim
G1 X138.735 Y123.389 E0.03082 ; brim
G1 X138.436 Y123.963 E0.02030 ; brim
G1 X137.704 Y124.763 E0.03399 ; brim
G1 X137.251 Y125.113 E0.01793 ; brim
G1 X135.855 Y125.582 E0.04619 ; brim
G1 X72.162 Y125.582 E1.99704 ; brim
G1 X71.211 Y125.335 E0.03082 ; brim
G1 X70.637 Y125.036 E0.02030 ; brim
G1 X69.837 Y124.304 E0.03399 ; brim
G1 X69.487 Y123.851 E0.01793 ; brim
G1 X69.018 Y122.455 E0.04619 ; brim
G1 X69.018 Y87.562 E1.09404 ; brim
G1 X69.265 Y86.611 E0.03082 ; brim
G1 X69.564 Y86.037 E0.02030 ; brim
G1 X70.296 Y85.237 E0.03399 ; brim
G1 X70.657 Y84.958 E0.01430 ; brim
G1 X70.953 Y85.206 F10800.000 ; move to first brim point
G1 F1800.000
G1 X72.176 Y84.795 E0.04045 ; brim
G1 X135.810 Y84.798 E1.99520 ; brim
G1 X136.413 Y84.923 E0.01933 ; brim
G1 X137.028 Y85.197 E0.02110 ; brim
G1 X137.892 Y85.957 E0.03609 ; brim
G1 X138.372 Y86.714 E0.02809 ; brim
G1 X138.605 Y87.587 E0.02835 ; brim
G1 X138.605 Y122.413 E1.09193 ; brim
G1 X138.377 Y123.271 E0.02783 ; brim
G1 X138.115 Y123.764 E0.01752 ; brim
G1 X137.439 Y124.495 E0.03121 ; brim
G1 X137.047 Y124.794 E0.01546 ; brim
G1 X135.824 Y125.205 E0.04045 ; brim
G1 X72.187 Y125.205 E1.99530 ; brim
G1 X71.329 Y124.977 E0.02783 ; brim
G1 X70.836 Y124.715 E0.01752 ; brim
G1 X70.105 Y124.039 E0.03121 ; brim
G1 X69.806 Y123.647 E0.01546 ; brim
G1 X69.395 Y122.424 E0.04045 ; brim
G1 X69.395 Y87.587 E1.09229 ; brim
G1 X69.623 Y86.729 E0.02783 ; brim
G1 X69.885 Y86.236 E0.01752 ; brim
G1 X70.561 Y85.505 E0.03121 ; brim
G1 X70.905 Y85.242 E0.01358 ; brim
G1 X71.132 Y85.542 F10800.000 ; move to first brim point
G1 F1800.000
G1 X72.206 Y85.172 E0.03562 ; brim
G1 X135.789 Y85.176 E1.99360 ; brim
G1 X136.314 Y85.287 E0.01681 ; brim
G1 X136.845 Y85.528 E0.01829 ; brim
G1 X137.622 Y86.221 E0.03263 ; brim
G1 X138.016 Y86.841 E0.02306 ; brim
G1 X138.228 Y87.613 E0.02510 ; brim
G1 X138.228 Y122.387 E1.09030 ; brim
G1 X138.020 Y123.149 E0.02477 ; brim
G1 X137.796 Y123.562 E0.01474 ; brim
G1 X137.175 Y124.225 E0.02845 ; brim
G1 X136.845 Y124.475 E0.01301 ; brim
G1 X135.794 Y124.828 E0.03476 ; brim
G1 X72.213 Y124.828 E1.99352 ; brim
G1 X71.451 Y124.620 E0.02477 ; brim
G1 X71.038 Y124.396 E0.01474 ; brim
G1 X70.375 Y123.775 E0.02845 ; brim
G1 X70.125 Y123.445 E0.01301 ; brim
G1 X69.772 Y122.394 E0.03476 ; brim
G1 X69.772 Y87.613 E1.09052 ; brim
G1 X69.980 Y86.851 E0.02477 ; brim
G1 X70.204 Y86.438 E0.01474 ; brim
G1 X70.825 Y85.775 E0.02845 ; brim
G1 X71.084 Y85.579 E0.01022 ; brim
G1 X72.237 Y85.549 F10800.000 ; move to first brim point
G1 F1800.000
G1 X135.768 Y85.553 E1.99197 ; brim
G1 X136.211 Y85.650 E0.01424 ; brim
G1 X136.659 Y85.858 E0.01548 ; brim
G1 X137.350 Y86.483 E0.02920 ; brim
G1 X137.662 Y86.971 E0.01818 ; brim
G1 X137.851 Y87.640 E0.02179 ; brim
G1 X137.851 Y122.360 E1.08862 ; brim
G1 X137.663 Y123.024 E0.02162 ; brim
G1 X137.478 Y123.357 E0.01196 ; brim
G1 X136.914 Y123.953 E0.02573 ; brim
G1 X136.643 Y124.155 E0.01059 ; brim
G1 X135.763 Y124.451 E0.02912 ; brim
G1 X72.240 Y124.451 E1.99172 ; brim
G1 X71.576 Y124.263 E0.02162 ; brim
G1 X71.243 Y124.078 E0.01196 ; brim
G1 X70.647 Y123.514 E0.02573 ; brim
G1 X70.445 Y123.243 E0.01059 ; brim
G1 X70.149 Y122.363 E0.02912 ; brim
G1 X70.149 Y87.640 E1.08872 ; brim
G1 X70.337 Y86.976 E0.02162 ; brim
G1 X70.522 Y86.643 E0.01196 ; brim
G1 X71.086 Y86.047 E0.02573 ; brim
G1 X71.357 Y85.845 E0.01059 ; brim
G1 X72.180 Y85.568 E0.02724 ; brim
G1 X72.268 Y85.926 F10800.000 ; move to first brim point
G1 F1800.000
G1 X135.746 Y85.930 E1.99030 ; brim
G1 X136.105 Y86.013 E0.01157 ; brim
G1 X136.471 Y86.185 E0.01268 ; brim
G1 X137.076 Y86.743 E0.02580 ; brim
G1 X137.308 Y87.105 E0.01347 ; brim
G1 X137.474 Y87.668 E0.01841 ; brim
G1 X137.474 Y122.332 E1.08686 ; brim
G1 X137.309 Y122.894 E0.01838 ; brim
G1 X137.163 Y123.149 E0.00919 ; brim
G1 X136.654 Y123.679 E0.02305 ; brim
G1 X136.444 Y123.834 E0.00819 ; brim
G1 X135.732 Y124.074 E0.02355 ; brim
G1 X72.268 Y124.074 E1.98987 ; brim
G1 X71.706 Y123.909 E0.01838 ; brim
G1 X71.451 Y123.763 E0.00919 ; brim
G1 X70.921 Y123.254 E0.02305 ; brim
G1 X70.766 Y123.044 E0.00819 ; brim
G1 X70.526 Y122.332 E0.02355 ; brim
G1 X70.526 Y87.668 E1.08687 ; brim
G1 X70.691 Y87.106 E0.01838 ; brim
G1 X70.837 Y86.851 E0.00919 ; brim
G1 X71.346 Y86.321 E0.02305 ; brim
G1 X71.556 Y86.166 E0.00819 ; brim
G1 X72.211 Y85.945 E0.02167 ; brim
G1 X71.754 Y86.488 F10800.000 ; move to first brim point
G1 F1800.000
G1 X72.299 Y86.303 E0.01806 ; brim
G1 X135.724 Y86.307 E1.98865 ; brim
G1 X135.962 Y86.362 E0.00767 ; brim
G1 X136.282 Y86.513 E0.01109 ; brim
G1 X136.801 Y87.001 E0.02233 ; brim
G1 X136.956 Y87.242 E0.00898 ; brim
G1 X137.097 Y87.698 E0.01495 ; brim
G1 X137.097 Y122.302 E1.08501 ; brim
G1 X136.956 Y122.759 E0.01500 ; brim
G1 X136.851 Y122.936 E0.00643 ; brim
G1 X136.396 Y123.403 E0.02044 ; brim
G1 X136.246 Y123.512 E0.00580 ; brim
G1 X135.701 Y123.697 E0.01806 ; brim
G1 X72.298 Y123.697 E1.98797 ; brim
G1 X71.841 Y123.556 E0.01500 ; brim
G1 X71.664 Y123.451 E0.00643 ; brim
G1 X71.197 Y122.996 E0.02044 ; brim
G1 X71.088 Y122.846 E0.00580 ; brim
G1 X70.903 Y122.301 E0.01806 ; brim
G1 X70.903 Y87.698 E1.08497 ; brim
G1 X71.044 Y87.241 E0.01500 ; brim
G1 X71.149 Y87.064 E0.00643 ; brim
G1 X71.604 Y86.597 E0.02044 ; brim
G1 X71.705 Y86.524 E0.00392 ; brim
G1 X71.948 Y86.812 F10800.000 ; move to first brim point
G1 F1800.000
G1 X72.331 Y86.680 E0.01270 ; brim
G1 X135.702 Y86.684 E1.98696 ; brim
G1 X135.819 Y86.711 E0.00377 ; brim
G1 X136.092 Y86.840 E0.00947 ; brim
G1 X136.523 Y87.257 E0.01880 ; brim
G1 X136.607 Y87.385 E0.00479 ; brim
G1 X136.720 Y87.729 E0.01136 ; brim
G1 X136.720 Y122.271 E1.08302 ; brim
G1 X136.606 Y122.617 E0.01144 ; brim
G1 X136.544 Y122.718 E0.00371 ; brim
G1 X136.141 Y123.125 E0.01795 ; brim
G1 X136.052 Y123.188 E0.00343 ; brim
G1 X135.669 Y123.320 E0.01270 ; brim
G1 X72.329 Y123.320 E1.98598 ; brim
G1 X71.983 Y123.206 E0.01144 ; brim
G1 X71.882 Y123.144 E0.00371 ; brim
G1 X71.475 Y122.741 E0.01795 ; brim
G1 X71.412 Y122.652 E0.00343 ; brim
G1 X71.280 Y122.269 E0.01270 ; brim
G1 X71.280 Y87.729 E1.08297 ; brim
G1 X71.394 Y87.383 E0.01144 ; brim
G1 X71.456 Y87.282 E0.00371 ; brim
G1 X71.899 Y86.847 E0.01947 ; brim
G1 X72.137 Y87.139 F10800.000 ; move to first brim point
G1 F1800.000
G1 X72.364 Y87.057 E0.00757 ; brim
G1 X135.650 Y87.057 E1.98427 ; brim
G1 X135.900 Y87.167 E0.00856 ; brim
G1 X136.243 Y87.510 E0.01522 ; brim
G1 X136.343 Y87.764 E0.00856 ; brim
G1 X136.343 Y122.236 E1.08082 ; brim
G1 X136.261 Y122.463 E0.00757 ; brim
G1 X135.890 Y122.843 E0.01666 ; brim
G1 X135.636 Y122.943 E0.00856 ; brim
G1 X72.364 Y122.943 E1.98382 ; brim
G1 X72.137 Y122.861 E0.00757 ; brim
G1 X71.757 Y122.490 E0.01666 ; brim
G1 X71.657 Y122.236 E0.00856 ; brim
G1 X71.657 Y87.764 E1.08082 ; brim
G1 X71.757 Y87.510 E0.00856 ; brim
G1 X72.091 Y87.176 E0.01480 ; brim
G1 X72.337 Y87.463 F10800.000 ; move to first brim point
G1 F1800.000
G1 X72.406 Y87.434 E0.00235 ; brim
G1 X135.594 Y87.434 E1.98120 ; brim
G1 X135.663 Y87.463 E0.00235 ; brim
G1 X135.937 Y87.737 E0.01215 ; brim
G1 X135.966 Y87.806 E0.00235 ; brim
G1 X135.966 Y122.194 E1.07819 ; brim
G1 X135.937 Y122.263 E0.00235 ; brim
G1 X135.663 Y122.537 E0.01215 ; brim
G1 X135.594 Y122.566 E0.00235 ; brim
G1 X72.406 Y122.566 E1.98120 ; brim
G1 X72.337 Y122.537 E0.00235 ; brim
G1 X72.063 Y122.263 E0.01215 ; brim
G1 X72.034 Y122.194 E0.00235 ; brim
G1 X72.034 Y87.806 E1.07819 ; brim
G1 X72.063 Y87.737 E0.00235 ; brim
G1 X72.295 Y87.506 E0.01027 ; brim
G1 X72.522 Y87.811 F10800.000 ; move to first brim point
G1 F1800.000
G1 X135.478 Y87.811 E1.97395 ; brim
G1 X135.589 Y87.922 E0.00490 ; brim
G1 X135.589 Y122.078 E1.07094 ; brim
G1 X135.478 Y122.189 E0.00490 ; brim
G1 X72.522 Y122.189 E1.97395 ; brim
G1 X72.411 Y122.078 E0.00490 ; brim
G1 X72.411 Y87.922 E1.07094 ; brim
G1 X72.479 Y87.854 E0.00302 ; brim
G1 X73.010 Y88.410 F10800.000 ; move to first perimeter point
;TYPE:External perimeter
G1 F1800.000
G1 X134.990 Y88.410 E1.94334 ; perimeter
G1 X134.990 Y121.590 E1.04034 ; perimeter
G1 X73.010 Y121.590 E1.94334 ; perimeter
G1 X73.010 Y88.470 E1.03845 ; perimeter
G1 X73.405 Y88.475 F10800.000 ; move inwards before travel
G1 X73.387 Y88.787 ; move to first perimeter point
;TYPE:Perimeter
G1 F1800.000
G1 X134.613 Y88.787 E1.91969 ; perimeter
G1 X134.613 Y121.213 E1.01669 ; perimeter
G1 X73.387 Y121.213 E1.91969 ; perimeter
G1 X73.387 Y88.847 E1.01481 ; perimeter
G1 E-3.60000 F2400.000 ; retract
;WIPE_START
G1 F8640.000
G1 X82.027 Y88.839 E-2.28000 ; wipe and retract
;WIPE_END
G1 E-0.12000 F2400.000 ; retract
G1 Z0.275 F10800.000 ; lift Z
G1 X133.733 Y88.900 ; move to first infill point
G1 Z0.200 ; restore layer Z
G1 E6.00000 F3000.000 ; unretract
;TYPE:Solid infill
;WIDTH:0.421972
G1 F1800.000
G1 X134.330 Y89.497 E0.02660 ; infill
G1 X134.330 Y90.033 E0.01690 ; infill
G1 X133.367 Y89.070 E0.04293 ; infill
G1 X132.831 Y89.070 E0.01690 ; infill
G1 X134.330 Y90.569 E0.06682 ; infill
G1 X134.330 Y91.105 E0.01690 ; infill
G1 X132.295 Y89.070 E0.09072 ; infill
G1 X131.759 Y89.070 E0.01690 ; infill
G1 X134.330 Y91.641 E0.11461 ; infill
G1 X134.330 Y92.177 E0.01690 ; infill
G1 X131.223 Y89.070 E0.13851 ; infill
G1 X130.687 Y89.070 E0.01690 ; infill
G1 X134.330 Y92.713 E0.16240 ; infill
G1 X134.330 Y93.249 E0.01690 ; infill
G1 X130.151 Y89.070 E0.18630 ; infill
G1 X129.615 Y89.070 E0.01690 ; infill
G1 X134.330 Y93.785 E0.21019 ; infill
G1 X134.330 Y94.322 E0.01690 ; infill
G1 X129.078 Y89.070 E0.23408 ; infill
