; generated by PrusaSlicer 2.3.0+win64 on 2021-04-19 at 09:10:21 UTC

; 

; external perimeters extrusion width = 0.60mm
; perimeters extrusion width = 0.45mm
; infill extrusion width = 0.45mm
; solid infill extrusion width = 0.45mm
; top infill extrusion width = 0.40mm
; first layer extrusion width = 0.42mm

M201 X1000 Y1000 Z200 E5000 ; sets maximum accelerations, mm/sec^2
M203 X200 Y200 Z8 E60 ; sets maximum feedrates, mm/sec
M204 P1250 R1250 T1250 ; sets acceleration (P, T) and retract acceleration (R), mm/sec^2
M205 X8.00 Y8.00 Z0.40 E5.00 ; sets the jerk limits, mm/sec
M205 S0 T0 ; sets the minimum extruding and travel feed rate, mm/sec
M107 ; disable fan
;TYPE:Custom
G90 ; use absolute coordinates
M83 ; extruder relative mode
M204 S1250 T1250
M104 S215 ; set extruder temp
M140 S60 ; set bed temp
G28 ; home all
G1 Y0 Z1 F100 ; move print head up
M190 S60 ; wait for bed temp
M109 S215 ; wait for extruder temp
G92 E0
G1 E38 F1000; deretract filament
G92 E0
G1 X60 Z0 E9 ; intro line
G1 X100 E12.5 ; intro line
G92 E0
G21 ; set units to millimeters
G90 ; use absolute coordinates
M83 ; use relative distances for extrusion
; Filament gcode
;LAYER_CHANGE
;Z:0.2
;HEIGHT:0.2
;BEFORE_LAYER_CHANGE
;0.2
G1 E-6.00000 F2400.000 ; retract
G1 Z0.075 F10800.000 ; lift Z
G1 Z0.200 ; move to next layer (0)
;AFTER_LAYER_CHANGE
;0.2
G1 Z0.275 ; lift Z
G1 X112.552 Y123.102 ; move to first brim point
G1 Z0.200 ; restore layer Z
G1 E6.00000 F3000.000 ; unretract
M204 S1250 ; adjust acceleration
;TYPE:Skirt
;WIDTH:0.42
G1 F1800.000
G1 X112.464 Y124.348 E0.03916 ; brim
G1 X112.024 Y125.873 E0.04979 ; brim
G1 X111.205 Y127.376 E0.05365 ; brim
G1 X110.043 Y128.681 E0.05480 ; brim
G1 X108.620 Y129.713 E0.05511 ; brim
G1 X108.087 Y129.942 E0.01818 ; brim
G1 X107.564 Y130.065 E0.01683 ; brim
G1 X106.796 Y130.088 E0.02409 ; brim
G1 X105.720 Y129.860 E0.03449 ; brim
G1 X104.998 Y129.520 E0.02503 ; brim
G1 X104.271 Y129.861 E0.02518 ; brim
G1 X103.371 Y130.065 E0.02893 ; brim
G1 X102.834 Y130.102 E0.01687 ; brim
G1 X102.010 Y129.969 E0.02616 ; brim
G1 X101.232 Y129.626 E0.02667 ; brim
G1 X99.884 Y128.614 E0.05285 ; brim
G1 X98.765 Y127.332 E0.05337 ; brim
G1 X97.974 Y125.869 E0.05214 ; brim
G1 X97.550 Y124.428 E0.04707 ; brim
G1 X97.443 Y123.102 E0.04173 ; brim
G1 X67.162 Y123.102 E0.94941 ; brim
G1 X66.081 Y122.923 E0.03436 ; brim
G1 X65.515 Y122.699 E0.01910 ; brim
G1 X64.990 Y122.401 E0.01893 ; brim
G1 X64.233 Y121.735 E0.03160 ; brim
G1 X63.655 Y120.896 E0.03194 ; brim
G1 X63.323 Y120.029 E0.02913 ; brim
G1 X63.193 Y119.116 E0.02891 ; brim
G1 X63.193 Y84.140 E1.09664 ; brim
G1 X63.371 Y83.022 E0.03552 ; brim
G1 X63.611 Y82.405 E0.02073 ; brim
G1 X63.935 Y81.836 E0.02055 ; brim
G1 X64.668 Y81.007 E0.03469 ; brim
G1 X65.558 Y80.407 E0.03365 ; brim
G1 X66.430 Y80.076 E0.02926 ; brim
G1 X67.405 Y79.937 E0.03086 ; brim
G1 X142.151 Y79.938 E2.34363 ; brim
G1 X143.080 Y80.056 E0.02936 ; brim
G1 X144.010 Y80.370 E0.03077 ; brim
G1 X144.848 Y80.861 E0.03046 ; brim
G1 X145.573 Y81.510 E0.03049 ; brim
G1 X146.450 Y82.899 E0.05152 ; brim
G1 X146.704 Y83.736 E0.02743 ; brim
G1 X146.807 Y84.626 E0.02809 ; brim
G1 X146.807 Y118.501 E1.06215 ; brim
G1 X146.619 Y119.712 E0.03841 ; brim
G1 X146.339 Y120.434 E0.02429 ; brim
G1 X145.948 Y121.102 E0.02426 ; brim
G1 X145.188 Y121.941 E0.03549 ; brim
G1 X144.252 Y122.577 E0.03550 ; brim
G1 X143.256 Y122.955 E0.03339 ; brim
G1 X142.196 Y123.102 E0.03355 ; brim
G1 X112.612 Y123.102 E0.92760 ; brim
G1 X112.198 Y122.724 F10800.000 ; move to first brim point
G1 F1800.000
G1 X112.096 Y124.263 E0.04834 ; brim
G1 X111.667 Y125.748 E0.04848 ; brim
G1 X110.884 Y127.175 E0.05103 ; brim
G1 X109.805 Y128.388 E0.05090 ; brim
G1 X108.416 Y129.394 E0.05377 ; brim
G1 X107.957 Y129.587 E0.01563 ; brim
G1 X107.499 Y129.693 E0.01473 ; brim
G1 X106.810 Y129.710 E0.02161 ; brim
G1 X105.820 Y129.496 E0.03175 ; brim
G1 X105.316 Y129.261 E0.01744 ; brim
G1 X104.995 Y129.032 E0.01238 ; brim
G1 X104.680 Y129.260 E0.01221 ; brim
G1 X104.168 Y129.498 E0.01769 ; brim
G1 X103.302 Y129.694 E0.02783 ; brim
G1 X102.832 Y129.724 E0.01477 ; brim
G1 X102.096 Y129.601 E0.02340 ; brim
G1 X101.441 Y129.312 E0.02246 ; brim
G1 X100.126 Y128.325 E0.05155 ; brim
G1 X99.063 Y127.100 E0.05084 ; brim
G1 X98.330 Y125.743 E0.04835 ; brim
G1 X97.918 Y124.341 E0.04583 ; brim
G1 X97.792 Y122.724 E0.05084 ; brim
G1 X67.178 Y122.724 E0.95989 ; brim
G1 X66.200 Y122.565 E0.03106 ; brim
G1 X65.689 Y122.364 E0.01721 ; brim
G1 X65.194 Y122.083 E0.01787 ; brim
G1 X64.501 Y121.469 E0.02901 ; brim
G1 X63.979 Y120.703 E0.02905 ; brim
G1 X63.683 Y119.916 E0.02637 ; brim
G1 X63.570 Y119.103 E0.02574 ; brim
G1 X63.570 Y84.155 E1.09578 ; brim
G1 X63.730 Y83.138 E0.03228 ; brim
G1 X63.945 Y82.579 E0.01877 ; brim
G1 X64.253 Y82.039 E0.01949 ; brim
G1 X64.900 Y81.305 E0.03068 ; brim
G1 X65.714 Y80.751 E0.03088 ; brim
G1 X66.505 Y80.446 E0.02659 ; brim
G1 X67.418 Y80.314 E0.02892 ; brim
G1 X142.139 Y80.315 E2.34282 ; brim
G1 X143.013 Y80.427 E0.02762 ; brim
G1 X143.869 Y80.720 E0.02837 ; brim
G1 X144.640 Y81.176 E0.02806 ; brim
G1 X145.301 Y81.772 E0.02792 ; brim
G1 X146.096 Y83.033 E0.04675 ; brim
G1 X146.338 Y83.829 E0.02609 ; brim
G1 X146.430 Y84.636 E0.02547 ; brim
G1 X146.430 Y118.487 E1.06137 ; brim
G1 X146.259 Y119.596 E0.03518 ; brim
G1 X146.005 Y120.257 E0.02221 ; brim
G1 X145.633 Y120.895 E0.02314 ; brim
G1 X144.926 Y121.670 E0.03290 ; brim
G1 X144.060 Y122.251 E0.03269 ; brim
G1 X143.144 Y122.594 E0.03067 ; brim
G1 X142.184 Y122.724 E0.03040 ; brim
G1 X112.258 Y122.724 E0.93830 ; brim
G1 X111.776 Y122.347 F10800.000 ; move to first brim point
G1 F1800.000
G1 X111.820 Y122.712 E0.01152 ; brim
G1 X111.728 Y124.179 E0.04610 ; brim
G1 X111.326 Y125.587 E0.04589 ; brim
G1 X110.588 Y126.942 E0.04838 ; brim
G1 X109.566 Y128.095 E0.04832 ; brim
G1 X108.248 Y129.056 E0.05114 ; brim
G1 X107.855 Y129.224 E0.01339 ; brim
G1 X107.432 Y129.321 E0.01361 ; brim
G1 X106.867 Y129.337 E0.01772 ; brim
G1 X105.922 Y129.133 E0.03032 ; brim
G1 X105.496 Y128.929 E0.01479 ; brim
G1 X104.993 Y128.560 E0.01958 ; brim
G1 X104.500 Y128.929 E0.01929 ; brim
G1 X104.064 Y129.135 E0.01512 ; brim
G1 X103.235 Y129.323 E0.02666 ; brim
G1 X102.831 Y129.347 E0.01266 ; brim
G1 X102.224 Y129.246 E0.01929 ; brim
G1 X101.649 Y128.996 E0.01966 ; brim
G1 X100.369 Y128.035 E0.05019 ; brim
G1 X99.362 Y126.870 E0.04830 ; brim
G1 X98.687 Y125.618 E0.04459 ; brim
G1 X98.285 Y124.254 E0.04458 ; brim
G1 X98.176 Y122.797 E0.04581 ; brim
G1 X98.232 Y122.347 E0.01420 ; brim
G1 X67.192 Y122.347 E0.97323 ; brim
G1 X66.319 Y122.206 E0.02775 ; brim
G1 X65.840 Y122.018 E0.01613 ; brim
G1 X65.399 Y121.766 E0.01595 ; brim
G1 X64.771 Y121.204 E0.02640 ; brim
G1 X64.305 Y120.512 E0.02614 ; brim
G1 X64.044 Y119.806 E0.02362 ; brim
G1 X63.947 Y119.091 E0.02263 ; brim
G1 X63.947 Y84.169 E1.09494 ; brim
G1 X64.090 Y83.255 E0.02903 ; brim
G1 X64.292 Y82.728 E0.01767 ; brim
G1 X64.570 Y82.244 E0.01751 ; brim
G1 X65.166 Y81.574 E0.02811 ; brim
G1 X65.906 Y81.076 E0.02797 ; brim
G1 X66.619 Y80.806 E0.02390 ; brim
G1 X67.431 Y80.691 E0.02573 ; brim
G1 X142.127 Y80.692 E2.34203 ; brim
G1 X142.945 Y80.799 E0.02586 ; brim
G1 X143.727 Y81.070 E0.02595 ; brim
G1 X144.429 Y81.489 E0.02566 ; brim
G1 X145.028 Y82.034 E0.02536 ; brim
G1 X145.744 Y83.168 E0.04206 ; brim
G1 X145.966 Y83.890 E0.02368 ; brim
G1 X146.053 Y84.647 E0.02390 ; brim
G1 X146.053 Y118.473 E1.06059 ; brim
G1 X145.900 Y119.480 E0.03193 ; brim
G1 X145.659 Y120.107 E0.02107 ; brim
G1 X145.318 Y120.686 E0.02107 ; brim
G1 X144.695 Y121.371 E0.02902 ; brim
G1 X143.905 Y121.907 E0.02994 ; brim
G1 X143.071 Y122.224 E0.02797 ; brim
G1 X142.171 Y122.347 E0.02850 ; brim
G1 X111.836 Y122.347 E0.95113 ; brim
G1 X111.334 Y121.970 F10800.000 ; move to first brim point
G1 F1800.000
G1 X111.443 Y122.710 E0.02345 ; brim
G1 X111.353 Y124.135 E0.04475 ; brim
G1 X110.970 Y125.462 E0.04332 ; brim
G1 X110.291 Y126.709 E0.04450 ; brim
G1 X109.326 Y127.804 E0.04576 ; brim
G1 X108.078 Y128.719 E0.04854 ; brim
G1 X107.753 Y128.860 E0.01111 ; brim
G1 X107.365 Y128.950 E0.01248 ; brim
G1 X106.924 Y128.963 E0.01383 ; brim
G1 X106.025 Y128.769 E0.02883 ; brim
G1 X105.679 Y128.599 E0.01209 ; brim
G1 X105.362 Y128.365 E0.01236 ; brim
G1 X104.993 Y127.963 E0.01711 ; brim
G1 X104.676 Y128.327 E0.01512 ; brim
G1 X104.290 Y128.614 E0.01508 ; brim
G1 X103.925 Y128.784 E0.01263 ; brim
G1 X103.169 Y128.951 E0.02426 ; brim
G1 X102.834 Y128.969 E0.01054 ; brim
G1 X102.312 Y128.879 E0.01662 ; brim
G1 X101.857 Y128.681 E0.01554 ; brim
G1 X100.640 Y127.772 E0.04763 ; brim
G1 X99.684 Y126.672 E0.04571 ; brim
G1 X99.028 Y125.457 E0.04330 ; brim
G1 X98.653 Y124.168 E0.04207 ; brim
G1 X98.554 Y122.792 E0.04328 ; brim
G1 X98.670 Y121.970 E0.02601 ; brim
G1 X67.207 Y121.970 E0.98649 ; brim
G1 X66.436 Y121.847 E0.02448 ; brim
G1 X66.015 Y121.684 E0.01417 ; brim
G1 X65.604 Y121.449 E0.01484 ; brim
G1 X65.042 Y120.941 E0.02374 ; brim
G1 X64.632 Y120.324 E0.02322 ; brim
G1 X64.406 Y119.698 E0.02088 ; brim
G1 X64.324 Y119.079 E0.01958 ; brim
G1 X64.324 Y84.183 E1.09411 ; brim
G1 X64.449 Y83.369 E0.02583 ; brim
G1 X64.627 Y82.903 E0.01565 ; brim
G1 X64.887 Y82.449 E0.01640 ; brim
G1 X65.430 Y81.845 E0.02547 ; brim
G1 X66.095 Y81.403 E0.02505 ; brim
G1 X66.730 Y81.167 E0.02122 ; brim
G1 X67.444 Y81.068 E0.02260 ; brim
G1 X142.114 Y81.069 E2.34124 ; brim
G1 X142.875 Y81.170 E0.02407 ; brim
G1 X143.582 Y81.419 E0.02350 ; brim
G1 X144.218 Y81.802 E0.02327 ; brim
G1 X144.754 Y82.294 E0.02282 ; brim
G1 X145.391 Y83.304 E0.03744 ; brim
G1 X145.593 Y83.952 E0.02127 ; brim
G1 X145.676 Y84.658 E0.02231 ; brim
G1 X145.676 Y118.459 E1.05981 ; brim
G1 X145.541 Y119.364 E0.02869 ; brim
G1 X145.313 Y119.957 E0.01991 ; brim
G1 X145.004 Y120.476 E0.01894 ; brim
G1 X144.433 Y121.098 E0.02648 ; brim
G1 X143.714 Y121.581 E0.02715 ; brim
G1 X142.960 Y121.863 E0.02525 ; brim
G1 X142.158 Y121.970 E0.02536 ; brim
G1 X111.394 Y121.970 E0.96459 ; brim
G1 X110.892 Y121.593 F10800.000 ; move to first brim point
G1 F1800.000
G1 X111.065 Y122.708 E0.03536 ; brim
G1 X110.978 Y124.090 E0.04342 ; brim
G1 X110.613 Y125.337 E0.04073 ; brim
G1 X109.993 Y126.476 E0.04067 ; brim
G1 X109.086 Y127.513 E0.04320 ; brim
G1 X107.905 Y128.384 E0.04600 ; brim
G1 X107.650 Y128.497 E0.00876 ; brim
G1 X107.298 Y128.579 E0.01133 ; brim
G1 X106.978 Y128.590 E0.01001 ; brim
G1 X106.167 Y128.419 E0.02600 ; brim
G1 X105.889 Y128.285 E0.00968 ; brim
G1 X105.603 Y128.073 E0.01116 ; brim
G1 X105.390 Y127.837 E0.00998 ; brim
G1 X104.993 Y127.165 E0.02447 ; brim
G1 X104.635 Y127.798 E0.02282 ; brim
G1 X104.432 Y128.038 E0.00987 ; brim
G1 X104.082 Y128.299 E0.01368 ; brim
G1 X103.789 Y128.432 E0.01007 ; brim
G1 X103.106 Y128.579 E0.02191 ; brim
G1 X102.839 Y128.591 E0.00839 ; brim
G1 X102.401 Y128.512 E0.01396 ; brim
G1 X102.065 Y128.366 E0.01148 ; brim
G1 X100.882 Y127.482 E0.04631 ; brim
G1 X100.005 Y126.474 E0.04190 ; brim
G1 X99.384 Y125.332 E0.04076 ; brim
G1 X99.021 Y124.083 E0.04079 ; brim
G1 X98.931 Y122.787 E0.04072 ; brim
G1 X99.109 Y121.593 E0.03784 ; brim
G1 X67.222 Y121.593 E0.99980 ; brim
G1 X66.554 Y121.488 E0.02121 ; brim
G1 X66.165 Y121.338 E0.01306 ; brim
G1 X65.810 Y121.132 E0.01287 ; brim
G1 X65.341 Y120.710 E0.01976 ; brim
G1 X64.978 Y120.171 E0.02040 ; brim
G1 X64.777 Y119.626 E0.01821 ; brim
G1 X64.701 Y119.066 E0.01772 ; brim
G1 X64.701 Y84.197 E1.09328 ; brim
G1 X64.809 Y83.484 E0.02261 ; brim
G1 X64.974 Y83.052 E0.01452 ; brim
G1 X65.203 Y82.656 E0.01433 ; brim
G1 X65.692 Y82.117 E0.02284 ; brim
G1 X66.282 Y81.731 E0.02210 ; brim
G1 X66.838 Y81.529 E0.01856 ; brim
G1 X67.456 Y81.446 E0.01954 ; brim
G1 X142.102 Y81.447 E2.34048 ; brim
G1 X142.771 Y81.533 E0.02113 ; brim
G1 X143.407 Y81.753 E0.02110 ; brim
G1 X143.978 Y82.093 E0.02084 ; brim
G1 X144.481 Y82.555 E0.02141 ; brim
G1 X145.038 Y83.440 E0.03281 ; brim
G1 X145.228 Y84.047 E0.01993 ; brim
G1 X145.299 Y84.669 E0.01963 ; brim
G1 X145.299 Y118.446 E1.05905 ; brim
G1 X145.181 Y119.250 E0.02549 ; brim
G1 X144.980 Y119.779 E0.01772 ; brim
G1 X144.691 Y120.266 E0.01778 ; brim
G1 X144.173 Y120.825 E0.02389 ; brim
G1 X143.525 Y121.254 E0.02435 ; brim
G1 X142.851 Y121.501 E0.02253 ; brim
G1 X142.146 Y121.593 E0.02227 ; brim
G1 X110.952 Y121.593 E0.97807 ; brim
G1 X110.392 Y121.216 F10800.000 ; move to first brim point
G1 F1800.000
G1 X110.501 Y121.539 E0.01068 ; brim
G1 X110.687 Y122.705 E0.03705 ; brim
G1 X110.603 Y124.045 E0.04208 ; brim
G1 X110.258 Y125.210 E0.03812 ; brim
G1 X109.695 Y126.244 E0.03691 ; brim
G1 X108.844 Y127.222 E0.04065 ; brim
G1 X107.728 Y128.050 E0.04356 ; brim
G1 X107.545 Y128.134 E0.00633 ; brim
G1 X107.232 Y128.207 E0.01006 ; brim
G1 X106.993 Y128.212 E0.00750 ; brim
G1 X106.271 Y128.056 E0.02318 ; brim
G1 X106.097 Y127.970 E0.00608 ; brim
G1 X105.869 Y127.805 E0.00882 ; brim
G1 X105.683 Y127.600 E0.00868 ; brim
G1 X104.992 Y126.402 E0.04335 ; brim
G1 X104.316 Y127.595 E0.04298 ; brim
G1 X104.160 Y127.776 E0.00749 ; brim
G1 X103.904 Y127.967 E0.01002 ; brim
G1 X103.688 Y128.068 E0.00749 ; brim
G1 X103.044 Y128.207 E0.02065 ; brim
G1 X102.848 Y128.214 E0.00613 ; brim
G1 X102.493 Y128.146 E0.01134 ; brim
G1 X102.273 Y128.050 E0.00752 ; brim
G1 X101.123 Y127.192 E0.04498 ; brim
G1 X100.326 Y126.274 E0.03812 ; brim
G1 X99.741 Y125.206 E0.03819 ; brim
G1 X99.389 Y123.997 E0.03948 ; brim
G1 X99.309 Y122.783 E0.03814 ; brim
G1 X99.500 Y121.535 E0.03959 ; brim
G1 X99.607 Y121.216 E0.01056 ; brim
G1 X67.236 Y121.216 E1.01499 ; brim
G1 X66.669 Y121.129 E0.01799 ; brim
G1 X66.340 Y121.003 E0.01102 ; brim
G1 X66.017 Y120.816 E0.01173 ; brim
G1 X65.614 Y120.449 E0.01710 ; brim
G1 X65.305 Y119.983 E0.01750 ; brim
G1 X65.139 Y119.519 E0.01547 ; brim
G1 X65.078 Y119.054 E0.01469 ; brim
G1 X65.078 Y84.211 E1.09248 ; brim
G1 X65.169 Y83.597 E0.01946 ; brim
G1 X65.308 Y83.227 E0.01241 ; brim
G1 X65.519 Y82.862 E0.01320 ; brim
G1 X65.921 Y82.417 E0.01879 ; brim
G1 X66.435 Y82.076 E0.01934 ; brim
G1 X66.911 Y81.899 E0.01593 ; brim
G1 X67.469 Y81.823 E0.01766 ; brim
G1 X142.090 Y81.824 E2.33968 ; brim
G1 X142.702 Y81.904 E0.01934 ; brim
G1 X143.262 Y82.102 E0.01864 ; brim
G1 X143.765 Y82.405 E0.01843 ; brim
G1 X144.206 Y82.814 E0.01884 ; brim
G1 X144.687 Y83.578 E0.02829 ; brim
G1 X144.856 Y84.109 E0.01748 ; brim
G1 X144.922 Y84.680 E0.01802 ; brim
G1 X144.922 Y118.433 E1.05829 ; brim
G1 X144.820 Y119.138 E0.02235 ; brim
G1 X144.647 Y119.601 E0.01550 ; brim
G1 X144.377 Y120.056 E0.01658 ; brim
G1 X143.914 Y120.550 E0.02125 ; brim
G1 X143.339 Y120.926 E0.02154 ; brim
G1 X142.744 Y121.139 E0.01982 ; brim
G1 X142.135 Y121.216 E0.01924 ; brim
G1 X110.452 Y121.216 E0.99341 ; brim
G1 E-3.60000 F2400.000 ; retract
;WIPE_START
G1 F8640.000
G1 X110.501 Y121.539 E-0.08610 ; wipe and retract
G1 X110.687 Y122.705 E-0.31179 ; wipe and retract
G1 X110.603 Y124.045 E-0.35414 ; wipe and retract
G1 X110.258 Y125.210 E-0.32083 ; wipe and retract
G1 X109.695 Y126.244 E-0.31062 ; wipe and retract
G1 X108.844 Y127.222 E-0.34213 ; wipe and retract
G1 X107.728 Y128.050 E-0.36660 ; wipe and retract
G1 X107.545 Y128.134 E-0.05326 ; wipe and retract
G1 X107.232 Y128.207 E-0.08464 ; wipe and retract
G1 X107.043 Y128.211 E-0.04991 ; wipe and retract
;WIPE_END
G1 E-0.12000 F2400.000 ; retract
G1 Z0.275 F10800.000 ; lift Z
G1 X104.979 Y124.804 ; move to first brim point
G1 Z0.200 ; restore layer Z
G1 E6.00000 F3000.000 ; unretract
G1 F1800.000
G1 X104.721 Y124.476 E0.01306 ; brim
G1 X104.064 Y123.978 E0.02586 ; brim
G1 X103.856 Y123.717 E0.01045 ; brim
G1 X103.719 Y123.414 E0.01045 ; brim
G1 X103.662 Y123.085 E0.01045 ; brim
G1 X103.687 Y122.753 E0.01045 ; brim
G1 X103.793 Y122.437 E0.01045 ; brim
G1 X103.974 Y122.158 E0.01045 ; brim
G1 X104.218 Y121.931 E0.01045 ; brim
G1 X104.511 Y121.772 E0.01045 ; brim
G1 X104.834 Y121.690 E0.01045 ; brim
G1 X105.167 Y121.690 E0.01045 ; brim
G1 X105.490 Y121.772 E0.01045 ; brim
G1 X105.783 Y121.932 E0.01045 ; brim
G1 X106.027 Y122.159 E0.01045 ; brim
G1 X106.207 Y122.439 E0.01045 ; brim
G1 X106.313 Y122.754 E0.01045 ; brim
G1 X106.338 Y123.087 E0.01045 ; brim
